Increase/img/stats/01.svg

<svg width="67" height="68" viewBox="0 0 67 68" fill="none" xmlns="http://www.w3.org/2000/svg">
<path fill-rule="evenodd" clip-rule="evenodd" d="M33.8085 4C17.3348 4 4 17.2745 4 33.625C4 34.7296 3.10457 35.625 2 35.625C0.89543 35.625 0 34.7296 0 33.625C0 15.0435 15.1475 0 33.8085 0C37.2454 0 40.566 0.510675 43.6959 1.46132C44.7528 1.78233 45.3494 2.89934 45.0284 3.95623C44.7074 5.01313 43.5904 5.60968 42.5335 5.28868C39.7764 4.45129 36.8473 4 33.8085 4Z" fill="white"/>
<path fill-rule="evenodd" clip-rule="evenodd" d="M26.9628 40.4307C30.7436 44.1895 36.873 44.1895 40.6537 40.4307C44.4343 36.6719 60.0847 10.2499 58.7018 8.87494C57.3188 7.49994 30.7436 23.0602 26.9628 26.819C23.1823 30.5778 23.1823 36.6719 26.9628 40.4307ZM33.808 36.3751C35.3356 36.3751 36.5742 35.1439 36.5742 33.6251C36.5742 32.1063 35.3356 30.8751 33.808 30.8751C32.2805 30.8751 31.0422 32.1063 31.0422 33.6251C31.0422 35.1439 32.2805 36.3751 33.808 36.3751Z" fill="white"/>
<path d="M8.91497 50.125C8.91497 51.6438 7.67661 52.875 6.14901 52.875C4.62142 52.875 3.38306 51.6438 3.38306 50.125C3.38306 48.6062 4.62142 47.375 6.14901 47.375C7.67661 47.375 8.91497 48.6062 8.91497 50.125Z" fill="white"/>
<path d="M19.9787 61.125C19.9787 62.6438 18.7403 63.875 17.2127 63.875C15.6851 63.875 14.4468 62.6438 14.4468 61.125C14.4468 59.6062 15.6851 58.375 17.2127 58.375C18.7403 58.375 19.9787 59.6062 19.9787 61.125Z" fill="white"/>
<path d="M36.5744 65.25C36.5744 66.7688 35.336 68 33.8084 68C32.2808 68 31.0425 66.7688 31.0425 65.25C31.0425 63.7312 32.2808 62.5 33.8084 62.5C35.336 62.5 36.5744 63.7312 36.5744 65.25Z" fill="white"/>
<path d="M53.1701 61.125C53.1701 62.6438 51.9317 63.875 50.4041 63.875C48.8765 63.875 47.6382 62.6438 47.6382 61.125C47.6382 59.6062 48.8765 58.375 50.4041 58.375C51.9317 58.375 53.1701 59.6062 53.1701 61.125Z" fill="white"/>
<path d="M62.851 50.125C62.851 51.6438 61.6126 52.875 60.085 52.875C58.5575 52.875 57.3191 51.6438 57.3191 50.125C57.3191 48.6062 58.5575 47.375 60.085 47.375C61.6126 47.375 62.851 48.6062 62.851 50.125Z" fill="white"/>
<path d="M66.9999 33.625C66.9999 35.1438 65.7616 36.375 64.234 36.375C62.7064 36.375 61.468 35.1438 61.468 33.625C61.468 32.1062 62.7064 30.875 64.234 30.875C65.7616 30.875 66.9999 32.1062 66.9999 33.625Z" fill="white"/>
</svg>

<svg width="67" height="68" fill="none" xmlns="http://www.w3.org/2000/svg"><path fill-rule="evenodd" clip-rule="evenodd" d="M33.809 4C17.335 4 4 17.274 4 33.625a2 2 0 11-4 0C0 15.044 15.148 0 33.809 0c3.436 0 6.757.51 9.887 1.461a2 2 0 01-1.163 3.828A29.976 29.976 0 0033.81 4zm-6.846 36.43c3.78 3.76 9.91 3.76 13.69 0 3.781-3.758 19.432-30.18 18.049-31.555C57.319 7.5 30.744 23.06 26.962 26.819a9.586 9.586 0 000 13.612zm6.845-4.055a2.758 2.758 0 002.766-2.75 2.758 2.758 0 00-2.766-2.75 2.758 2.758 0 00-2.766 2.75 2.758 2.758 0 002.766 2.75z" fill="#fff"/><path d="M8.915 50.125a2.758 2.758 0 01-2.766 2.75 2.758 2.758 0 01-2.766-2.75 2.758 2.758 0 012.766-2.75 2.758 2.758 0 012.766 2.75zm11.064 11a2.758 2.758 0 01-2.766 2.75 2.758 2.758 0 01-2.766-2.75 2.758 2.758 0 012.766-2.75 2.758 2.758 0 012.766 2.75zm16.595 4.125A2.758 2.758 0 0133.808 68a2.758 2.758 0 01-2.765-2.75 2.758 2.758 0 012.765-2.75 2.758 2.758 0 012.766 2.75zm16.596-4.125a2.758 2.758 0 01-2.766 2.75 2.758 2.758 0 01-2.766-2.75 2.758 2.758 0 012.766-2.75 2.758 2.758 0 012.766 2.75zm9.681-11a2.758 2.758 0 01-2.766 2.75 2.758 2.758 0 01-2.766-2.75 2.758 2.758 0 012.766-2.75 2.758 2.758 0 012.766 2.75zM67 33.625a2.758 2.758 0 01-2.766 2.75 2.758 2.758 0 01-2.766-2.75 2.758 2.758 0 012.766-2.75A2.758 2.758 0 0167 33.625z" fill="#fff"/></svg>
